fs/content_settings_16_filled.svg

<svg viewBox="0 0 16 16" fill="none" xmlns="http://www.w3.org/2000/svg" height="1em" width="1em">
  <path d="M2 4.75021C2 3.23131 3.23122 2 4.75 2H11.25C12.7688 2 14 3.23131 14 4.75021V6.25731C13.5537 5.88854 13.0483 5.58885 12.5 5.3746V4.99922H3.5V11.2507C3.5 11.9411 4.05964 12.5008 4.75 12.5008H5.37435C5.58858 13.0491 5.88825 13.5546 6.25699 14.0009H4.75C3.23122 14.0009 2 12.7696 2 11.2507V4.75021ZM4.99902 5.99819H7.33755C6.93418 6.28206 6.57068 6.61877 6.25712 6.99827H5.49902V8.205C5.17802 8.90342 4.99902 9.68064 4.99902 10.4997C4.99902 10.8412 5.03014 11.1754 5.08971 11.4997H4.99902C4.72288 11.4997 4.49902 11.2758 4.49902 10.9997V6.49823C4.49902 6.22207 4.72288 5.99819 4.99902 5.99819ZM6.50391 8.7193L6.86175 9.0689C7.66499 9.85361 7.66499 11.1457 6.86175 11.9304L6.50391 12.28C6.63347 12.5909 6.79593 12.8837 6.98675 13.1537L7.38229 13.0351C8.48408 12.7045 9.63691 13.3694 9.90277 14.4886L10.0178 14.9727C10.1759 14.9907 10.3366 15 10.4993 15C10.6621 15 10.8228 14.9907 10.9809 14.9727L11.0959 14.4886C11.3618 13.3694 12.5146 12.7045 13.6164 13.0351L14.0119 13.1537C14.2028 12.8837 14.3652 12.5909 14.4948 12.28L14.1369 11.9304C13.3337 11.1457 13.3337 9.85361 14.1369 9.0689L14.4948 8.7193C14.3652 8.40838 14.2028 8.11558 14.0119 7.84561L13.6164 7.96426C12.5146 8.29479 11.3618 7.62996 11.0959 6.51072L10.9809 6.0266C10.8228 6.00858 10.6621 5.99932 10.4993 5.99932C10.3366 5.99932 10.1759 6.00858 10.0178 6.0266L9.90277 6.51072C9.63691 7.62996 8.48408 8.29479 7.38229 7.96426L6.98675 7.84561C6.79593 8.11558 6.63347 8.40838 6.50391 8.7193ZM10.4993 11.4997C9.94706 11.4997 9.49934 11.052 9.49934 10.4997C9.49934 9.94734 9.94706 9.49959 10.4993 9.49959C11.0516 9.49959 11.4993 9.94734 11.4993 10.4997C11.4993 11.052 11.0516 11.4997 10.4993 11.4997Z" fill="#212121"/>
</svg>

<svg viewBox="0 0 16 16" fill="none" xmlns="http://www.w3.org/2000/svg" height="1em" width="1em">
  <path d="M2 4.75A2.75 2.75 0 0 1 4.75 2h6.5A2.75 2.75 0 0 1 14 4.75v1.507a5.495 5.495 0 0 0-1.5-.882v-.376h-9v6.252c0 .69.56 1.25 1.25 1.25h.624a5.51 5.51 0 0 0 .883 1.5H4.75A2.75 2.75 0 0 1 2 11.25v-6.5Zm2.999 1.248h2.339c-.404.284-.767.62-1.08 1h-.759v1.207a5.531 5.531 0 0 0-.41 3.295H5a.5.5 0 0 1-.5-.5V6.498a.5.5 0 0 1 .5-.5ZM6.504 8.72l.358.35a2 2 0 0 1 0 2.861l-.358.35c.13.31.292.604.483.874l.395-.119a2 2 0 0 1 2.52 1.454l.116.484a4.256 4.256 0 0 0 .963 0l.115-.484a2 2 0 0 1 2.52-1.454l.396.119c.19-.27.353-.563.483-.874l-.358-.35a2 2 0 0 1 0-2.861l.358-.35a4.536 4.536 0 0 0-.483-.873l-.396.118a2 2 0 0 1-2.52-1.453l-.115-.484a4.252 4.252 0 0 0-.963 0l-.115.484a2 2 0 0 1-2.52 1.453l-.396-.118c-.191.27-.354.562-.483.873Zm3.995 2.78a1 1 0 1 1 0-2 1 1 0 0 1 0 2Z" fill="#212121"/>
</svg>
